X: 20575
T: John O'Connor's
R: jig
M: 6/8
K: Gmajor
|:D|GAG FED|E2 F G2 A|B2 G c2 A|B2 G c2 A|
Bcd EFG|A/B/AG FED|EFG AFD|G3 G2:|
|:D|GAG GBd|e2 f g2 e|dBG GBd|e2 f g2 e|
dBG c2 A|dBG FED|EFG AFD|G3 G2:|

